packages/core/src/svgs/tokens/branded/MTRG.svg

<svg width="24" height="24" viewBox="0 0 24 24" fill="none" xmlns="http://www.w3.org/2000/svg">
<path d="M11.9992 3.0526C13.8176 3.07846 15.5876 3.64204 17.0862 4.67233C18.5848 5.70263 19.7449 7.15351 20.4202 8.84208L18.8412 9.10525C18.2666 7.77334 17.3097 6.64183 16.0918 5.85391C14.8738 5.06599 13.4495 4.65708 11.9992 4.67892C7.90438 4.67892 4.54648 7.88945 4.63069 12L3.157 13.3947C2.95817 12.1177 3.03785 10.8127 3.39063 9.5693C3.74339 8.32592 4.36089 7.17354 5.20079 6.19118C6.04066 5.20881 7.08307 4.41971 8.25651 3.87797C9.42995 3.33623 10.7067 3.05467 11.9992 3.0526ZM5.30964 14.9737C5.8866 16.2652 6.82437 17.3625 8.01017 18.1338C9.19598 18.905 10.5794 19.3174 11.9939 19.3211C16.136 19.3211 19.4938 15.8473 19.3676 11.7368L20.8834 10.9263C21.0343 12.1828 20.9173 13.4569 20.5399 14.6648C20.1625 15.8728 19.5333 16.9869 18.6937 17.9338C17.8542 18.8808 16.8235 19.6389 15.6695 20.1584C14.5156 20.6778 13.2646 20.9468 11.9992 20.9474C10.2832 20.9389 8.60557 20.4386 7.16527 19.5058C5.72496 18.5729 4.58232 17.2466 3.8728 15.6842L5.30964 14.9737Z" fill="#1C2C5F"/>
<path d="M2 15.1579L10.9473 8.84209L10.4211 11.4737L15.6843 8.84209L15.1579 11.4737L22 9.3684L12.7895 13.8421L13.579 11.4737L8.31581 14.1053L8.84212 12L2 15.1579Z" fill="#1C2C5F"/>
</svg>

<svg xmlns="http://www.w3.org/2000/svg" width="24" height="24" fill="none" viewBox="0 0 24 24">
    <path fill="#1C2C5F" d="M12 3.053a9.21 9.21 0 0 1 8.42 5.79l-1.579.262A7.33 7.33 0 0 0 12 4.68c-4.095 0-7.453 3.21-7.368 7.321l-1.474 1.395A8.963 8.963 0 0 1 12 3.054m-6.69 11.92a7.34 7.34 0 0 0 6.684 4.348c4.142 0 7.5-3.474 7.374-7.584l1.515-.81A8.955 8.955 0 0 1 12 20.946a8.97 8.97 0 0 1-8.126-5.263z"/>
    <path fill="#1C2C5F" d="m2 15.158 8.947-6.316-.526 2.632 5.263-2.632-.526 2.632L22 9.368l-9.21 4.474.789-2.368-5.263 2.631L8.842 12z"/>
</svg>
